Obsidian-SemiLight/actions/16s/view-right-close.svg

<svg viewBox="0 0 16 16" xmlns="http://www.w3.org/2000/svg"><g transform="translate(-421.71429 -531.79074)"><path d="m2 2v12h12v-12zm1 2h3v9h-3zm4 0h6v9h-6z" fill="#4d4d4d" transform="translate(421.71429 531.79074)"/><path d="m433.47167 537.79079.70703.70703-1.79296 1.79297 1.79296 1.79297-.70703.70703-1.79297-1.79296-1.79297 1.79296-.70703-.70703 1.79296-1.79297-1.79296-1.79297.70703-.70703 1.79297 1.79296z" fill="#da4453"/></g></svg>

<svg xmlns="http://www.w3.org/2000/svg" viewBox="0 0 16 16">
  <defs id="defs3051">
    <style type="text/css" id="current-color-scheme">
      .ColorScheme-Text {
        color:#4d4d4d;
      }
      .ColorScheme-NegativeText {
        color:#da4453;
      }
      </style>
  </defs>
  <g
     transform="translate(-421.71429,-531.79074)">
    <path
       style="fill:currentColor;fill-opacity:1;stroke:none" 
       d="M 2 2 L 2 14 L 14 14 L 14 2 L 2 2 z M 3 4 L 6 4 L 6 13 L 3 13 L 3 4 z M 7 4 L 13 4 L 13 13 L 7 13 L 7 4 z "
       transform="translate(421.71429,531.79074)"
     class="ColorScheme-Text"
       id="rect4272" />
    <path
        style="fill:currentColor;fill-opacity:1;stroke:none" 
     class="ColorScheme-NegativeText"
    d="m 433.47167,537.79079 0.70703,0.70703 -1.79296,1.79297 1.79296,1.79297 -0.70703,0.70703 -1.79297,-1.79296 -1.79297,1.79296 -0.70703,-0.70703 1.79296,-1.79297 -1.79296,-1.79297 0.70703,-0.70703 1.79297,1.79296 1.79297,-1.79296 z" />
  </g>
</svg>
